X:1
T:Clairières dans le ciel
T:Au pied de mon lit
T:Clairières dans le ciel
T:Lili Boulanger
T:5. Au pied de mon lit 
T:Francis Jammes
T:A ma chère Maman
T:Creative Commons copyright waiver (CC0 1.0 Universal)
T:Creative Commons copyright waiver (CC0 1.0 Universal)
T:Creative Commons copyright waiver (CC0 1.0 Universal)
T:Creative Commons copyright waiver (CC0 1.0 Universal)
C:Lili Boulanger
Z:Francis Jammes
Z:Creative Commons copyright waiver (CC0 1.0 Universal)
%%score ( 1 2 ) 3
L:1/8
Q:1/4=116
M:4/4
K:G
V:1 treble nm="Chant\nVoice"
V:2 treble 
V:3 bass nm="Piano"
V:1
"^Sans lenteur" z2!p! B2 d2 c d | B4 A2 B2 | G2 F G E2 E z | z2 =F2!>(! G2!>)! G z | %4
w: Au pied de mon|lit, u- ne|Vier- ge né- gres- se|fût mi- se|
 z2!<(! A4!<)! A2 |!>(! B4!>)! E2 z2 | z2!<(! B2 d d c d!<)! |!>(! e6!>)! d2 | c2 c2 (3B2 B2 c2 | %9
w: par ma|mè- re.|Et j'ai- me cet- te|Vier- ge|d'u- ne re- li- gi-|
 A3 A"^à l'aise" !tenuto!d d c d ||[M:3/2]"^A tempo" B4 B2 z2 z4 | z12 | %12
w: on un peu i- ta- li-|\- en- ne.||
"^*" z2!f! e2 f4 (3e2 f2 g2 | a8- a2 g2 | f6 e2 d2 f2 | ^e8- e2 z2 | z2!pp! ^e e =e2 e e ^d3 d | %17
w: Vir- go Lau- re- ta-|na, _ de-|\- bout dans un fond|d'or _|qui me fai- tes pen- ser à|
 !tenuto!=g _e e2- e3 _B B4- | _B z g g ^f2 f f =f3 f | e c c2- c A A2- A2!>(! e2 | %20
w: mil- le fruits _ de mer|_ Que l'on vend sur les quais où|pas un souf- * fle d'air _ n'é-|
 =f4!>)! (3_d2 _e2 f2 f2 g2 | _a3 g =f4- f2 _e2 | =d12- |!>(! d4!>)! c4- c z"^*" z2 ||[M:2/2] z8 | %25
w: meut les pa- vil- lons qui|lour- de- ment _ s'en-|dor-|* ment. _||
 z8 | z8 ||[M:4/4][Q:1/4=116]"^Tempo I" z2!f! !tenuto!e2 !tenuto!d !tenuto!c !tenuto!d !tenuto!f | %28
w: ||Vir- go Lau- re- ta-|
 !tenuto!e2 d c B2!>(! A G!>)! | =F- F z E (3F F!<(! F G G | A3!<)! A"^cédez" c2 d d | e4- e z z2 | %32
w: na, vous sa- vez qu'en ces|heu- res où je ne me sens pas|di- gne d'ê- tre‿ai- mé|d'el- le|
 z2!p!"^avec une douceur" g2 f4 |"^infinie" z2 e2 d2 !tenuto!d2 | c3 B A A (3:2:2c2 d | %35
w: c'est vous|dont le par-|fum me ra- fraî- chit le|
"^a tempo" e8- | e8- | e2 z2 z4 | z8 |] %39
w: cœur.|_|||
V:2
 x8 | x8 | x8 | x8 | x8 | x8 | x8 | x8 | x8 | x8 ||[M:3/2] x12 | x12 | x12 | x12 | x12 | x12 | %16
 x12 | x12 | x12 | x12 | x x x2 x8 | x12 | x12 | x12 ||[M:2/2] x8 | x8 | x8 ||[M:4/4] x8 | x8 | %29
 x8 | x8 | x8 | x8 | x8 | x2"^molto rit." x2 x4 | x8 | x8 | x8 | x8 |] %39
V:3
 z8 | z8 | z8 | z8 | z8 | z8 | z8 | z8 | z8 | z8 ||[M:3/2] z12 | z12 | z12 | z12 | z12 | z12 | %16
"_*  These 12 measures may be sung an octave lower" z12 | z12 | z12 | z12 | z12 | z12 | z12 | %23
 z12 ||[M:2/2] z8 | z8 | z8 ||[M:4/4] z8 | z8 | z8 | z8 | z8 | z8 | z8 | z8 | z8 | z8 | z8 | z8 |] %39

